Simply-ALT-Circles/scalable/apps/thunderbird-3.0.svg

<?xml version="1.0" encoding="UTF-8" standalone="no"?>
<svg
   xmlns:dc="http://purl.org/dc/elements/1.1/"
   xmlns:cc="http://creativecommons.org/ns#"
   xmlns:rdf="http://www.w3.org/1999/02/22-rdf-syntax-ns#"
   xmlns:svg="http://www.w3.org/2000/svg"
   xmlns="http://www.w3.org/2000/svg"
   xmlns:sodipodi="http://sodipodi.sourceforge.net/DTD/sodipodi-0.dtd"
   xmlns:inkscape="http://www.inkscape.org/namespaces/inkscape"
   width="48"
   height="48"
   viewBox="0 0 12.7 12.7"
   version="1.1"
   id="svg4"
   sodipodi:docname="thunderbird-3.0.svg"
   inkscape:version="1.0.1 (3bc2e813f5, 2020-09-07)">
  <metadata
     id="metadata10">
    <rdf:RDF>
      <cc:Work
         rdf:about="">
        <dc:format>image/svg+xml</dc:format>
        <dc:type
           rdf:resource="http://purl.org/dc/dcmitype/StillImage" />
        <dc:title></dc:title>
      </cc:Work>
    </rdf:RDF>
  </metadata>
  <defs
     id="defs8" />
  <sodipodi:namedview
     pagecolor="#ffffff"
     bordercolor="#666666"
     borderopacity="1"
     objecttolerance="10"
     gridtolerance="10"
     guidetolerance="10"
     inkscape:pageopacity="0"
     inkscape:pageshadow="2"
     inkscape:window-width="1920"
     inkscape:window-height="1051"
     id="namedview6"
     showgrid="false"
     inkscape:zoom="16"
     inkscape:cx="22.350241"
     inkscape:cy="25.767922"
     inkscape:window-x="0"
     inkscape:window-y="0"
     inkscape:window-maximized="1"
     inkscape:current-layer="svg4"
     inkscape:document-rotation="0" />
  <path
     id="path2"
     style="fill:#fbc707;stroke-width:3.77953"
     d="M 23.976562 0.27148438 L 23.976562 0.27539062 A 23.773228 23.773228 0 0 0 0.203125 24.048828 A 23.773228 23.773228 0 0 0 23.976562 47.814453 A 23.773228 23.773228 0 0 0 47.75 24.044922 A 23.773228 23.773228 0 0 0 23.976562 0.27148438 z M 23.910156 3.8144531 A 20.435906 20.435906 0 0 1 44.345703 24.25 A 20.435906 20.435906 0 0 1 23.910156 44.685547 A 20.435906 20.435906 0 0 1 3.4765625 24.25 A 20.435906 20.435906 0 0 1 23.910156 3.8164062 L 23.910156 3.8144531 z "
     transform="scale(0.26458333)" />
  <path
     style="fill:#fbc707"
     d="M 4.064,4.285 A 0.045,0.045 0 0 0 4.05,4.318 0.045,0.045 0 0 0 4.05,4.32 0.137,0.137 0 0 1 4.064,4.285 Z"
     id="path862" />
  <path
     id="path860"
     style="fill:#008cff;fill-opacity:1"
     d="M 4.191,4.214 A 0.14,0.14 0 0 0 4.067,4.282 0.045,0.045 0 0 1 4.095,4.272 0.045,0.045 0 0 1 4.14,4.318 0.045,0.045 0 0 1 4.095,4.362 0.045,0.045 0 0 1 4.05,4.321 C 4.048,4.331 4.043,4.341 4.043,4.351 A 0.143,0.143 0 0 0 4.181,4.498 0.143,0.143 0 0 0 4.33,4.361 0.144,0.144 0 0 0 4.191,4.214 Z M 5.6658038,1.5249715 C 5.4338047,1.5079715 4.7869644,1.6568971 4.2219644,2.2778971 2.4849647,3.000897 1.444873,4.5980474 1.444873,6.3360474 c 0,1.9229998 1.074083,3.0458224 1.8520835,3.5548215 l 0.00517,0.00413 c 0.118,0.083999 0.2459223,0.1559737 0.3829222,0.2149737 0.1400001,0.066 0.256045,0.105172 0.3250449,0.113172 0.026,0.008 -0.3460464,-0.5803275 -0.5100463,-1.2893275 0.3199998,0.326 0.7021634,0.5844191 1.1301635,0.6294189 0.044,0.006 -0.1514195,-0.2370384 -0.3674195,-0.5560383 l 3.4680054,1.1539349 c -0.3160001,0.323 -0.735897,0.634055 -1.3068969,0.911055 0,0 1.2859136,-0.105172 1.9239134,-0.822172 -0.26,0.596 -0.9710002,0.917774 -0.9710002,0.917774 0.523,-0.077 1.8990244,-0.482682 2.7750245,-1.5776817 0.991,-1.24 1.290154,-2.4040656 0.991154,-3.9630657 C 10.840989,4.0470468 9.4788798,2.6020371 8.2728799,2.3130371 A 3.698,3.698 0 0 0 6.9809692,1.8670695 c -0.568,-0.073 -1.0429401,-0.05988 -1.44694,0.01912 0.127,-0.1219999 0.2728515,-0.1824178 0.2728515,-0.1824178 -0.1900002,0.017 -0.4280029,0.1413685 -0.6320028,0.2733684 -0.02,0.006 -0.037912,0.014704 -0.058911,0.021704 -0.07,0.015 -0.1351219,0.03626 -0.2041221,0.05426 0.05,-0.064 0.1041299,-0.1298675 0.1581298,-0.1808675 0.2400001,-0.228 0.5958292,-0.3472656 0.5958292,-0.3472656 z M 5.828068,2.745052 v 0.00103 c 4.493e-4,-2.299e-4 -0.00399,0.00124 -0.00362,0.00103 -0.1198395,0.059797 -0.2414182,0.1390025 -0.3612181,0.2330608 a 3.4700001,3.4700001 0 0 0 -0.182418,0.1519288 c -0.3,0.269 -0.5856889,0.6077397 -0.8226888,0.9167397 a 0.22199999,0.22199999 0 0 1 0.019637,0.084233 0.308,0.308 0 0 1 -0.00568,0.094051 l -0.0093,0.040824 a 0.565,0.565 0 0 1 -0.026872,0.073897 l -0.00207,0.00723 A 0.55299998,0.55299998 0 0 1 4.3728597,4.4560587 0.40799998,0.40799998 0 0 1 4.0638346,4.5971354 c -0.1199999,0.18 -0.1937867,0.2997234 -0.1937867,0.2997231 A 1.9449999,1.9449999 0 0 1 3.7961506,4.2467691 c 0.002,-0.027 0.00682,-0.054682 0.00982,-0.082682 a 1.1579999,1.1579999 0 0 1 0.031006,-0.1539957 0.85999999,0.85999999 0 0 1 0.036174,-0.099219 c 0.009,-0.022 0.016939,-0.044629 0.028939,-0.065629 l 0.00982,-0.018087 A 0.62,0.62 0 0 1 3.9878703,3.7201863 C 4.5379814,3.1133729 5.8948989,2.7080408 5.8244506,2.747119 c 0.0012,-5.977e-4 0.00242,-0.00147 0.00362,-0.00207 z M 2.9698444,4.1139607 3.120223,4.141866 3.2902384,4.1692544 c 0.009,0.062 0.018556,0.1236527 0.032556,0.1896525 0.034,0.1540002 0.040234,0.3990721 0.00723,0.557072 -0.007,0.032 -0.093272,0.1138634 -0.1162722,0.3348633 V 5.270996 C 2.9817573,4.927996 2.6838137,4.4882344 2.6298136,4.4152343 A 1.44,1.44 0 0 1 2.9698444,4.1139607 Z M 2.5419637,4.5294393 c 0.335248,0.4773816 2.0261133,3.0204873 2.1301025,3.0204873 h 0.00207 c 0.007,-0.003 0.014738,-0.00678 0.022737,-0.00879 v 0.00362 c 0.734,-0.2610001 2.6982296,-0.9368358 3.8602295,-1.3358357 -0.019,0.5599999 -0.1998728,1.0559976 -0.4738729,1.3099976 0.2429999,-0.056 0.506825,-0.353105 0.7498252,-0.8201052 -0.03,0.1960002 -0.054917,0.4363498 -0.089917,0.70435 -0.082,0.5999998 -0.031357,1.6747188 -0.9203573,2.6577193 L 2.1869466,8.1860635 c -0.165,-0.512 -0.2378537,-1.1102253 -0.1958537,-1.8102254 0.097,0.1870001 0.3969437,0.340165 0.5839437,0.3441652 C 2.3501621,6.5081213 1.8825903,5.4650375 2.5419637,4.5294393 Z m 2.5750366,0.035657 3.2561318,0.5420857 C 8.4801323,5.3921818 8.5379662,5.6851782 8.5529662,5.9701781 7.1689663,6.4941783 5.4238374,7.1429869 4.6958374,7.3359861 l -0.00258,0.00207 c -0.057,0.015 -0.6803882,-0.8901131 -1.2603882,-1.7451131 0.265,-0.337 0.5048787,-0.409794 0.5048787,-0.409794 C 4.3477441,5.0151461 4.5198368,4.8350881 4.9578368,4.6110879 a 0.53799999,0.53799999 0 0 1 0.1591635,-0.045992 z" />
</svg>

<?xml version="1.0" encoding="UTF-8" standalone="no"?>
<svg
   xmlns:dc="http://purl.org/dc/elements/1.1/"
   xmlns:cc="http://creativecommons.org/ns#"
   xmlns:rdf="http://www.w3.org/1999/02/22-rdf-syntax-ns#"
   xmlns:svg="http://www.w3.org/2000/svg"
   xmlns="http://www.w3.org/2000/svg"
   xmlns:sodipodi="http://sodipodi.sourceforge.net/DTD/sodipodi-0.dtd"
   xmlns:inkscape="http://www.inkscape.org/namespaces/inkscape"
   width="48"
   height="48"
   viewBox="0 0 12.7 12.7"
   version="1.1"
   id="svg4"
   sodipodi:docname="thunderbird.svg"
   inkscape:version="0.92.4 (5da689c313, 2019-01-14)">
  <metadata
     id="metadata10">
    <rdf:RDF>
      <cc:Work
         rdf:about="">
        <dc:format>image/svg+xml</dc:format>
        <dc:type
           rdf:resource="http://purl.org/dc/dcmitype/StillImage" />
        <dc:title></dc:title>
      </cc:Work>
    </rdf:RDF>
  </metadata>
  <defs
     id="defs8" />
  <sodipodi:namedview
     pagecolor="#ffffff"
     bordercolor="#666666"
     borderopacity="1"
     objecttolerance="10"
     gridtolerance="10"
     guidetolerance="10"
     inkscape:pageopacity="0"
     inkscape:pageshadow="2"
     inkscape:window-width="1087"
     inkscape:window-height="480"
     id="namedview6"
     showgrid="false"
     inkscape:zoom="4.9166667"
     inkscape:cx="2.1355932"
     inkscape:cy="24"
     inkscape:window-x="0"
     inkscape:window-y="25"
     inkscape:window-maximized="0"
     inkscape:current-layer="svg4" />
  <path
     d="m 6.344,0.073 a 6.29,6.29 0 0 0 -6.29,6.29 6.29,6.29 0 0 0 6.29,6.288 6.29,6.29 0 0 0 6.29,-6.289 6.29,6.29 0 0 0 -6.29,-6.29 z M 6.326,1.009 A 5.407,5.407 0 0 1 11.733,6.416 5.407,5.407 0 0 1 6.326,11.823 5.407,5.407 0 0 1 0.92,6.416 5.407,5.407 0 0 1 6.326,1.01 Z M 5.666,1.525 C 5.434,1.508 4.787,1.657 4.222,2.278 2.485,3.001 1.445,4.598 1.445,6.336 c 0,1.923 1.074,3.046 1.852,3.555 l 0.005,0.004 c 0.118,0.084 0.246,0.156 0.383,0.215 0.14,0.066 0.256,0.105 0.325,0.113 C 4.036,10.231 3.664,9.643 3.5,8.934 3.82,9.26 4.202,9.518 4.63,9.563 4.674,9.569 4.479,9.326 4.263,9.007 l 3.468,1.154 c -0.316,0.323 -0.736,0.634 -1.307,0.911 0,0 1.286,-0.105 1.924,-0.822 -0.26,0.596 -0.971,0.918 -0.971,0.918 C 7.9,11.091 9.276,10.685 10.152,9.59 11.143,8.35 11.442,7.186 11.143,5.627 10.841,4.047 9.479,2.602 8.273,2.313 A 3.698,3.698 0 0 0 6.981,1.867 C 6.413,1.794 5.938,1.807 5.534,1.886 5.661,1.764 5.807,1.704 5.807,1.704 5.617,1.721 5.379,1.845 5.175,1.977 5.155,1.983 5.137,1.992 5.116,1.999 5.046,2.014 4.981,2.035 4.912,2.053 4.962,1.989 5.016,1.923 5.07,1.872 5.31,1.644 5.666,1.525 5.666,1.525 Z m 0.162,1.22 C 5.707,2.805 5.584,2.885 5.463,2.98 A 3.47,3.47 0 0 0 5.281,3.132 C 4.981,3.401 4.695,3.74 4.458,4.049 A 0.222,0.222 0 0 1 4.478,4.133 0.308,0.308 0 0 1 4.472,4.227 L 4.463,4.268 A 0.565,0.565 0 0 1 4.436,4.342 L 4.434,4.349 A 0.553,0.553 0 0 1 4.373,4.456 0.408,0.408 0 0 1 4.064,4.597 c -0.12,0.18 -0.194,0.3 -0.194,0.3 A 1.945,1.945 0 0 1 3.796,4.247 C 3.798,4.22 3.803,4.192 3.806,4.164 A 1.158,1.158 0 0 1 3.837,4.01 0.86,0.86 0 0 1 3.873,3.911 C 3.882,3.889 3.89,3.866 3.902,3.845 L 3.912,3.827 A 0.62,0.62 0 0 1 3.988,3.72 C 4.541,3.11 5.914,2.702 5.828,2.746 Z M 2.97,4.114 3.12,4.142 3.29,4.169 C 3.299,4.231 3.309,4.293 3.323,4.359 3.357,4.513 3.363,4.758 3.33,4.916 3.323,4.948 3.237,5.03 3.214,5.251 v 0.02 C 2.982,4.928 2.684,4.488 2.63,4.415 A 1.44,1.44 0 0 1 2.97,4.114 Z m 1.221,0.1 A 0.14,0.14 0 0 0 4.067,4.282 0.045,0.045 0 0 1 4.095,4.272 0.045,0.045 0 0 1 4.14,4.318 0.045,0.045 0 0 1 4.095,4.362 0.045,0.045 0 0 1 4.05,4.321 C 4.048,4.331 4.043,4.341 4.043,4.351 A 0.143,0.143 0 0 0 4.181,4.498 0.143,0.143 0 0 0 4.33,4.361 0.144,0.144 0 0 0 4.191,4.214 Z M 4.064,4.285 A 0.045,0.045 0 0 0 4.05,4.318 0.045,0.045 0 0 0 4.05,4.32 0.137,0.137 0 0 1 4.064,4.285 Z M 2.542,4.529 C 2.877,5.006 4.568,7.55 4.672,7.55 H 4.674 C 4.681,7.547 4.689,7.543 4.697,7.541 V 7.545 C 5.431,7.284 7.395,6.608 8.557,6.209 8.538,6.769 8.357,7.265 8.083,7.519 8.326,7.463 8.59,7.166 8.833,6.699 8.803,6.895 8.778,7.135 8.743,7.403 8.661,8.003 8.712,9.078 7.823,10.061 L 2.187,8.186 C 2.022,7.674 1.949,7.076 1.991,6.376 2.088,6.563 2.388,6.716 2.575,6.72 2.35,6.508 1.882,5.464 2.543,4.528 Z M 5.117,4.565 8.373,5.107 C 8.48,5.392 8.538,5.685 8.553,5.97 7.169,6.494 5.424,7.143 4.696,7.336 L 4.693,7.338 C 4.636,7.353 4.013,6.448 3.433,5.593 3.698,5.256 3.938,5.183 3.938,5.183 4.348,5.015 4.52,4.835 4.958,4.611 A 0.538,0.538 0 0 1 5.117,4.565 Z"
     id="path2"
     inkscape:connector-curvature="0"
     style="fill:#fbc707" />
</svg>
